Numix/64/mimetypes/application-image-tiff.svg

<?xml version="1.0" encoding="UTF-8" standalone="no"?>
<svg
   xmlns:dc="http://purl.org/dc/elements/1.1/"
   xmlns:cc="http://creativecommons.org/ns#"
   xmlns:rdf="http://www.w3.org/1999/02/22-rdf-syntax-ns#"
   xmlns:svg="http://www.w3.org/2000/svg"
   xmlns="http://www.w3.org/2000/svg"
   xmlns:sodipodi="http://sodipodi.sourceforge.net/DTD/sodipodi-0.dtd"
   xmlns:inkscape="http://www.inkscape.org/namespaces/inkscape"
   width="64px"
   height="64px"
   viewBox="0 0 64 64"
   version="1.1"
   id="svg2"
   inkscape:version="0.91 r13725"
   sodipodi:docname="application-image-tiff.svg">
  <metadata
     id="metadata27">
    <rdf:RDF>
      <cc:Work
         rdf:about="">
        <dc:format>image/svg+xml</dc:format>
        <dc:type
           rdf:resource="http://purl.org/dc/dcmitype/StillImage" />
      </cc:Work>
    </rdf:RDF>
  </metadata>
  <defs
     id="defs25" />
  <sodipodi:namedview
     pagecolor="#ffffff"
     bordercolor="#666666"
     borderopacity="1"
     objecttolerance="10"
     gridtolerance="10"
     guidetolerance="10"
     inkscape:pageopacity="0"
     inkscape:pageshadow="2"
     inkscape:window-width="1366"
     inkscape:window-height="704"
     id="namedview23"
     showgrid="false"
     inkscape:zoom="15.527832"
     inkscape:cx="34.045293"
     inkscape:cy="32"
     inkscape:window-x="0"
     inkscape:window-y="27"
     inkscape:window-maximized="1"
     inkscape:current-layer="svg2" />
  <g
     id="surface1">
    <path
       style=" stroke:none;fill-rule:nonzero;fill:rgb(21.960784%,63.921569%,30.588235%);fill-opacity:1;"
       d="M 10.671875 0 C 9.296875 0 8 1.355469 8 2.789062 L 8 61.210938 C 8 62.566406 9.375 64 10.671875 64 L 53.328125 64 C 54.625 64 56 62.566406 56 61.210938 L 56 18 L 38 0 Z M 10.671875 0 "
       id="path5" />
    <path
       style=" stroke:none;fill-rule:nonzero;fill:rgb(0%,0%,0%);fill-opacity:0.196078;"
       d="M 42 18 L 56 32 L 56 18 Z M 42 18 "
       id="path7" />
    <path
       style=" stroke:none;fill-rule:nonzero;fill:rgb(100%,100%,100%);fill-opacity:0.392157;"
       d="M 38 0 L 55.984375 18 L 40.757812 18 C 39.410156 18 38 16.574219 38 15.226562 Z M 38 0 "
       id="path9" />
    <path
       style="fill:#ffffff;fill-opacity:1;fill-rule:nonzero;stroke:none"
       d="M 23.289062,22 C 22.585938,22.066406 21.984375,22.8125 22,23.605469 l 0,16.828125 c 0.0078,0.828125 0.667969,1.574218 1.40625,1.566406 l 17.222656,0 C 41.355469,41.984375 41.992188,41.253906 42,40.433594 L 42,23.605469 C 42.015625,22.769531 41.371094,22.007812 40.628906,22 Z M 24,24 40,24 40,35.402344 35.296875,30.085938 32.316406,32.859375 28.386719,27.9375 24,33.597656 Z"
       id="path11"
       inkscape:connector-curvature="0"
       sodipodi:nodetypes="ccccccccccccccccc" />
    <path
       style=" stroke:none;fill-rule:nonzero;fill:rgb(0%,0%,0%);fill-opacity:0.196078;"
       d="M 8 48 L 8 61.335938 C 8 62.632812 9.375 64 10.664062 64 L 53.335938 64 C 54.625 64 56 62.632812 56 61.335938 L 56 48 Z M 8 48 "
       id="path13" />
    <path
       style=" stroke:none;fill-rule:nonzero;fill:rgb(100%,100%,100%);fill-opacity:1;"
       d="M 22.464844 50.933594 L 22.464844 52.757812 L 19.40625 52.757812 L 19.40625 62 L 17.078125 62 L 17.078125 52.757812 L 14.015625 52.757812 L 14.015625 50.933594 L 22.464844 50.933594 "
       id="path15" />
    <path
       style=" stroke:none;fill-rule:nonzero;fill:rgb(100%,100%,100%);fill-opacity:1;"
       d="M 23.945312 62 L 23.945312 60.175781 L 26.476562 60.175781 L 26.476562 52.757812 L 23.945312 52.757812 L 23.945312 50.933594 L 31.324219 50.933594 L 31.324219 52.757812 L 28.804688 52.757812 L 28.804688 60.175781 L 31.324219 60.175781 L 31.324219 62 L 23.945312 62 "
       id="path17" />
    <path
       style=" stroke:none;fill-rule:nonzero;fill:rgb(100%,100%,100%);fill-opacity:1;"
       d="M 33.5 62 L 33.5 50.933594 L 40.609375 50.933594 L 40.609375 52.757812 L 35.808594 52.757812 L 35.808594 55.441406 L 40.011719 55.441406 L 40.011719 57.265625 L 35.808594 57.265625 L 35.808594 62 L 33.5 62 "
       id="path19" />
    <path
       style=" stroke:none;fill-rule:nonzero;fill:rgb(100%,100%,100%);fill-opacity:1;"
       d="M 42.878906 62 L 42.878906 50.933594 L 50 50.933594 L 50 52.757812 L 45.191406 52.757812 L 45.191406 55.441406 L 49.398438 55.441406 L 49.398438 57.265625 L 45.191406 57.265625 L 45.191406 62 L 42.878906 62 "
       id="path21" />
  </g>
</svg>

<svg xmlns="http://www.w3.org/2000/svg" viewBox="0 0 64 64">
 <g>
  <path d="m 10.672 0 c -1.375 0 -2.672 1.355 -2.672 2.789 l 0 58.42 c 0 1.355 1.375 2.789 2.672 2.789 l 42.656 0 c 1.297 0 2.672 -1.434 2.672 -2.789 l 0 -43.21 l -18 -18 m -27.328 0" style="fill:#37a34d;fill-opacity:1;stroke:none;fill-rule:nonzero"/>
  <path d="m 42 18 l 14 14 l 0 -14 m -14 0" style="fill:#000;fill-opacity:0.196;stroke:none;fill-rule:nonzero"/>
  <path d="m 38 0 l 17.984 18 l -15.227 0 c -1.348 0 -2.758 -1.426 -2.758 -2.773 m 0 -15.227" style="fill:#fff;fill-opacity:0.392;stroke:none;fill-rule:nonzero"/>
  <path d="m 23.289 22 c -0.703 0.066 -1.305 0.813 -1.289 1.605 l 0 16.828 c 0.008 0.828 0.668 1.574 1.406 1.566 l 17.223 0 c 0.727 -0.016 1.363 -0.746 1.371 -1.566 l 0 -16.828 c 0.016 -0.836 -0.629 -1.598 -1.371 -1.605 m -16.629 2 16 0 0 11.402 -4.703 -5.316 -2.98 2.773 -3.93 -4.922 -4.387 5.66" style="fill:#fff;fill-opacity:1;stroke:none;fill-rule:nonzero"/>
  <path d="m 8 48 l 0 13.336 c 0 1.297 1.375 2.664 2.664 2.664 l 42.672 0 c 1.289 0 2.664 -1.367 2.664 -2.664 l 0 -13.336 m -48 0" style="fill:#000;fill-opacity:0.196;stroke:none;fill-rule:nonzero"/>
  <path d="m 22.465 50.934 l 0 1.824 l -3.059 0 l 0 9.242 l -2.328 0 l 0 -9.242 l -3.063 0 l 0 -1.824 l 8.449 0" style="fill:#fff;fill-opacity:1;stroke:none;fill-rule:nonzero"/>
  <path d="m 23.945 62 l 0 -1.824 l 2.531 0 l 0 -7.418 l -2.531 0 l 0 -1.824 l 7.379 0 l 0 1.824 l -2.52 0 l 0 7.418 l 2.52 0 l 0 1.824 l -7.379 0" style="fill:#fff;fill-opacity:1;stroke:none;fill-rule:nonzero"/>
  <path d="m 33.5 62 l 0 -11.07 l 7.109 0 l 0 1.824 l -4.801 0 l 0 2.684 l 4.203 0 l 0 1.824 l -4.203 0 l 0 4.734 l -2.309 0" style="fill:#fff;fill-opacity:1;stroke:none;fill-rule:nonzero"/>
  <path d="m 42.879 62 l 0 -11.07 l 7.121 0 l 0 1.824 l -4.809 0 l 0 2.684 l 4.207 0 l 0 1.824 l -4.207 0 l 0 4.734 l -2.313 0" style="fill:#fff;fill-opacity:1;stroke:none;fill-rule:nonzero"/>
 </g>
</svg>
